src/show.svg

<svg viewBox="0 0 16 16" fill="none" xmlns="http://www.w3.org/2000/svg"><path d="M14.92 7.61C14.84 7.42 12.89 3 8 3C3.11 3 1.16 7.42 1.08 7.61L0.910004 8L1.08 8.39C1.16 8.58 3.11 13 8 13C12.89 13 14.84 8.58 14.92 8.39L15.09 8L14.92 7.61ZM8 12C3.71 12 2 8 2 8C2 8 3.71 4 8 4C12.29 4 14 8 14 8C14 8 12.29 12 8 12Z" fill="#111111"/><path d="M8 5C7.40666 5 6.82664 5.17595 6.33329 5.50559C5.83995 5.83524 5.45543 6.30377 5.22837 6.85195C5.0013 7.40013 4.94189 8.00333 5.05765 8.58527C5.1734 9.16721 5.45913 9.70176 5.87868 10.1213C6.29824 10.5409 6.83279 10.8266 7.41473 10.9424C7.99668 11.0581 8.59988 10.9987 9.14805 10.7716C9.69623 10.5446 10.1648 10.1601 10.4944 9.66671C10.8241 9.17336 11 8.59334 11 8C11 7.20435 10.6839 6.44129 10.1213 5.87868C9.55872 5.31607 8.79565 5 8 5ZM8 10C7.60444 10 7.21776 9.8827 6.88886 9.66294C6.55997 9.44318 6.30362 9.13082 6.15224 8.76537C6.00087 8.39991 5.96126 7.99778 6.03843 7.60982C6.1156 7.22186 6.30609 6.86549 6.58579 6.58579C6.8655 6.30608 7.22186 6.1156 7.60982 6.03843C7.99779 5.96126 8.39992 6.00087 8.76537 6.15224C9.13082 6.30362 9.44318 6.55996 9.66294 6.88886C9.88271 7.21776 10 7.60444 10 8C10 8.53043 9.78929 9.03914 9.41422 9.41421C9.03914 9.78929 8.53044 10 8 10Z" fill="#111111"/></svg>

<svg viewBox="0 0 16 16" fill="none" xmlns="http://www.w3.org/2000/svg"><path d="M14.92 7.61C14.84 7.42 12.89 3 8 3 3.11 3 1.16 7.42 1.08 7.61L.91 8l.17.39C1.16 8.58 3.11 13 8 13c4.89 0 6.84-4.42 6.92-4.61l.17-.39-.17-.39ZM8 12c-4.29 0-6-4-6-4s1.71-4 6-4 6 4 6 4-1.71 4-6 4Z" fill="#111111"/><path d="M8 5a3 3 0 1 0 0 6 3 3 0 0 0 0-6Zm0 5a2 2 0 1 1 0-4 2 2 0 0 1 0 4Z" fill="#111111"/></svg>
